_inc/systems/logos/spectravideo.svg

<?xml version="1.0" encoding="utf-8"?>
<svg viewBox="0 0 282.731 50.071" xmlns="http://www.w3.org/2000/svg">
  <path d="M251.383 46.161H32.002l3.232 3.877 212.61.033 3.539-3.91z" style="fill: rgb(255, 255, 255);"/>
  <path d="M256.491 40.037l-114.837.022L26.9 40.037l3.749 4.497L141.6 44.51l111.144.024 3.749-4.497h-.002z" style="fill: rgb(255, 255, 255);"/>
  <path d="M261.565 33.952H21.821l3.717 4.458 116.113-.018 116.196.018 3.718-4.458z" style="fill: rgb(255, 255, 255);"/>
  <path d="M 35.656 22.216 C 35.656 22.216 32.327 16.661 32.309 16.678 C 29.661 12.788 26.981 11.078 22.465 11.078 L 11.884 11.078 L 8.186 6.118 L 25.412 6.118 L 22.445 0.534 C 22.445 0.534 9.978 0.334 4.011 0.534 C 0.528 0.55 -0.725 3.934 0.403 6.073 C 0.358 6.116 5.629 13.286 5.629 13.286 C 7.939 15.814 9.56 16.521 14.946 16.665 L 25.225 16.66 L 28.829 22.243 L 12.066 22.243 L 17.677 28.973 C 17.677 28.973 32.138 28.973 32.19 28.911 C 36.493 28.899 36.61 23.791 35.659 22.216 L 35.656 22.216 Z M 26.325 0.534 L 42.485 28.911 L 49.023 28.911 L 42.484 16.66 C 42.484 16.66 47.959 16.74 50.709 16.559 C 55.472 16.659 57.215 15.276 55.823 11.112 L 53.593 6.11 C 51.503 1.939 50.599 0.835 44.315 0.533 L 26.325 0.533 Z M 36.961 6.117 L 46.311 6.117 L 48.508 11.079 L 39.243 11.079 L 36.961 6.117 Z M 84.153 28.912 L 82.156 22.297 C 82.156 22.297 74.344 22.174 70.406 22.244 C 69.824 20.886 68.165 16.661 68.165 16.661 L 79.924 16.661 L 78.39 11.134 L 66.187 11.134 L 63.932 6.116 L 76.559 6.116 L 75.044 0.483 L 61.255 0.533 C 57.834 0.533 55.84 4.028 56.483 6.153 L 63.53 22.327 C 65.735 26.531 67.824 28.267 71.847 28.765 C 76.352 29.314 84.153 28.912 84.153 28.912 Z M 93.267 0.534 C 93.267 0.534 87.821 0.46 84.272 0.606 C 80.825 0.666 78.496 3.235 79.048 6.158 C 79.035 6.116 83.701 22.243 83.687 22.173 C 85.148 25.743 88.128 28.911 92.26 28.86 L 99.598 28.91 L 98.355 22.243 L 90.587 22.243 L 85.844 6.116 L 94.35 6.116 L 93.267 0.534 Z M 95.766 6.116 L 101.122 6.116 L 105.689 28.911 L 111.164 28.911 L 107.457 6.116 L 111.638 6.116 L 110.929 0.565 L 94.682 0.534 L 95.766 6.116 Z M 132.628 16.66 C 135.17 16.66 138.149 13.71 138.108 11.353 C 137.98 9.623 137.991 7.772 137.799 6.103 C 137.249 2.52 133.445 0.597 130.589 0.533 C 124.747 0.66 112.996 0.533 112.996 0.533 L 116.694 28.911 L 122.805 28.911 L 120.439 6.117 L 131.04 6.117 L 131.097 11.079 L 128.419 11.079 C 124.617 11.079 124.281 13.898 125.935 16.609 C 128.795 21.043 134.905 28.969 134.905 28.969 L 142.423 28.973 C 142.424 28.973 136.845 22.243 132.628 16.661 Z" style="fill: rgb(255, 255, 255);"/>
  <path d="M 142.494 0.009 L 141.264 28.919 L 147.502 28.976 L 147.48 22.243 L 156.05 22.243 L 155.751 28.986 L 161.431 28.976 C 161.431 28.976 163.558 18.103 163.517 11.141 C 163.684 5 159.188 0.533 152.918 0.078 C 149.472 -0.036 142.494 0.008 142.494 0.008 Z M 156.76 11.079 L 156.865 16.067 L 148.138 16.015 L 147.958 6.118 C 154.189 6.116 156.567 7.472 156.76 11.078 Z M 174.658 28.428 C 178.193 27.602 180.41 24.864 182.793 19.838 C 188.819 7.138 191.846 0.534 191.846 0.534 L 185.085 0.534 L 175.67 20.423 C 174.816 21.833 173.322 22.363 171.756 22.243 C 172.962 14.638 175.647 0.533 175.647 0.533 L 168.963 0.533 C 168.963 0.533 164.486 27.517 164.486 28.973 C 164.486 29.013 171.804 29.096 174.658 28.429 Z M 201.626 0.534 L 193.932 0.564 L 185.724 28.973 L 192.97 28.933 L 201.626 0.533 Z M 205.561 0.565 L 196.569 28.973 L 211.662 28.973 C 216.128 28.973 221.491 22.147 221.491 22.147 L 229.268 5.987 C 231.035 1.983 228.242 0.534 223.898 0.612 C 217.644 0.532 205.559 0.565 205.559 0.565 L 205.561 0.565 Z M 221.309 6.115 L 215.027 22.243 C 215.027 22.243 209.122 22.179 206.168 22.243 L 211.226 6.116 L 221.309 6.116 Z M 244.187 22.243 L 231.888 22.243 L 234.579 16.66 L 247.846 16.66 L 250.538 11.077 L 237.454 11.077 L 240.076 6.115 L 254.122 6.127 L 256.963 0.533 C 256.963 0.533 247.033 0.327 241.308 0.708 C 236.752 1.13 233.586 3.566 232.472 6.168 L 224.97 22.288 C 222.89 26.588 225.639 28.775 228.038 28.848 C 232.457 28.988 240.858 28.933 240.858 28.933 L 244.187 22.243 Z M 266.987 0.674 C 262.138 0.9 259.5 2.79 257.058 6.029 C 253.833 10.319 246.984 22.328 246.984 22.328 C 244.13 27.841 248.18 28.738 251.384 28.878 C 251.539 28.973 259.337 28.973 259.446 28.906 C 263.053 28.828 263.811 28.542 265.535 27.526 C 266.433 26.996 268.353 24.923 270.601 22.222 L 282.286 6.144 C 283.892 3.944 280.854 0.534 277.8 0.627 C 277.801 0.627 267.158 0.534 266.987 0.674 Z M 264.604 6.116 L 275.204 6.116 L 263.794 22.243 L 254.045 22.243 L 264.604 6.116 Z" style="fill: rgb(255, 255, 255);"/>
</svg>

<svg xmlns="http://www.w3.org/2000/svg" viewBox="0 0 282.73 50.07"><path d="M251.38 46.16H32l3.23 3.88 212.61.03zm5.12-6.12-114.85.02-114.75-.02 3.75 4.5 110.95-.03 111.14.02zm5.07-6.09H21.82l3.72 4.46 116.11-.02 116.2.02zM35.66 22.22s-3.33-5.56-3.35-5.54c-2.65-3.9-5.33-5.6-9.85-5.6H11.89l-3.7-4.96h17.23L22.45.53S9.98.33 4 .53A3.83 3.83 0 0 0 .4 6.07c-.05.05 5.22 7.22 5.22 7.22 2.3 2.52 3.93 3.23 9.32 3.38l10.28-.01 3.6 5.58H12.07l5.6 6.73s14.47 0 14.52-.06c4.3-.01 4.42-5.12 3.47-6.7M26.33.53l16.16 28.38h6.53l-6.54-12.25s5.48.08 8.23-.1c4.76.1 6.5-1.28 5.11-5.45l-2.23-5C51.5 1.94 50.6.84 44.31.53zm10.63 5.59h9.35l2.2 4.96h-9.27zm47.2 22.8-2-6.62s-7.82-.13-11.75-.06c-.59-1.35-2.24-5.58-2.24-5.58h11.75l-1.53-5.53h-12.2l-2.26-5.01h12.63L75.04.48 61.25.53c-3.42 0-5.41 3.5-4.77 5.62l7.05 16.18c2.2 4.2 4.3 5.94 8.32 6.44 4.5.54 12.3.14 12.3.14M93.25.52S87.81.45 84.26.6c-3.44.06-5.77 2.63-5.22 5.55l4.64 16.01c1.46 3.57 4.44 6.74 8.57 6.69l7.34.05-1.24-6.67h-7.77L85.84 6.12h8.51zm2.5 5.59h5.36l4.57 22.8h5.47l-3.7-22.8h4.18l-.71-5.56L94.68.53zm36.87 10.54c2.54 0 5.52-2.95 5.48-5.3-.13-1.74-.12-3.59-.31-5.26-.55-3.58-4.36-5.5-7.21-5.57-5.84.13-17.6 0-17.6 0l3.7 28.38h6.12l-2.37-22.8h10.6l.06 4.97h-2.68c-3.8 0-4.14 2.82-2.48 5.53a251 251 0 0 0 8.97 12.36h7.51s-5.57-6.73-9.8-12.3Z" style="fill:#fff"/><path d="m142.5 0-1.24 28.92 6.24.06-.02-6.74h8.57l-.3 6.75 5.68-.01s2.13-10.88 2.09-17.84C163.68 5 159.19.54 152.92.08 149.47-.04 142.49 0 142.49 0m14.26 11.08.1 4.99-8.72-.05-.18-9.9c6.23 0 8.6 1.35 8.8 4.96m17.9 17.35c3.53-.83 5.75-3.57 8.13-8.6 6.03-12.7 9.06-19.3 9.06-19.3h-6.76l-9.42 19.9c-.85 1.4-2.35 1.93-3.91 1.81 1.2-7.6 3.89-21.7 3.89-21.7h-6.69s-4.47 26.98-4.47 28.43c0 .04 7.31.13 10.17-.54M201.63.53l-7.7.03-8.2 28.41 7.24-.04zm3.93.03-9 28.41h15.1c4.47 0 9.83-6.82 9.83-6.82l7.78-16.16c1.76-4-1.03-5.46-5.37-5.38-6.26-.08-18.34-.05-18.34-.05m15.75 5.56-6.28 16.12s-5.9-.06-8.86 0l5.06-16.12zm22.88 16.12h-12.3l2.69-5.58h13.27l2.69-5.58h-13.09l2.63-4.96h14.04l2.84-5.59s-9.93-.2-15.65.18c-4.56.42-7.72 2.86-8.84 5.46l-7.5 16.12c-2.08 4.3.67 6.49 3.07 6.56 4.42.14 12.82.08 12.82.08zM266.99.67c-4.85.23-7.49 2.12-9.93 5.36-3.23 4.29-10.08 16.3-10.08 16.3-2.85 5.51 1.2 6.4 4.4 6.55.16.1 7.96.1 8.07.03 3.6-.08 4.36-.37 6.09-1.38.9-.53 2.81-2.6 5.06-5.3l11.7-16.1c1.6-2.2-1.44-5.6-4.49-5.51 0 0-10.64-.1-10.81.04m-2.39 5.45h10.6l-11.4 16.12h-9.76z" style="fill:#fff"/></svg>
